Sources/FrostedUI/Resources/Icons.xcassets/discordSize16.imageset/discord-size-16.svg

<svg
  width="16"
  height="16"
  viewBox="0 0 16 16"
  fill="none"
  xmlns="http://www.w3.org/2000/svg"
  data-fui-icon="true"
>
  <path
    d="M12.4428 3.94055C11.6018 3.55351 10.714 3.27892 9.80204 3.12381C9.67724 3.34807 9.56437 3.57881 9.46377 3.81506C8.49237 3.6679 7.5045 3.6679 6.5331 3.81506C6.43248 3.57884 6.31957 3.3481 6.19483 3.12381C5.28229 3.28023 4.3939 3.55547 3.55208 3.94258C1.88086 6.42824 1.42781 8.85215 1.65433 11.2417C2.63304 11.9686 3.7285 12.5214 4.89309 12.8762C5.15532 12.5216 5.38736 12.1455 5.58675 11.7518C5.20804 11.6096 4.84251 11.4341 4.49441 11.2275C4.58603 11.1607 4.67563 11.0919 4.76221 11.0251C5.77511 11.504 6.88062 11.7522 7.99998 11.7522C9.11928 11.7522 10.2248 11.504 11.2377 11.0251C11.3253 11.097 11.4149 11.1658 11.5055 11.2275C11.1567 11.4345 10.7906 11.6103 10.4111 11.7528C10.6103 12.1463 10.8423 12.5221 11.1048 12.8762C12.2704 12.5229 13.3667 11.9703 14.3456 11.2427C14.6114 8.47164 13.8915 6.06997 12.4428 3.94055Z"
    stroke="currentColor"
    stroke-width="1.2"
  />
  <path
    d="M4.72192 8.48779C4.72192 9.19627 5.24343 9.77216 5.87466 9.77216 6.51799 9.77216 7.01531 9.19627 7.02642 8.48779 7.03748 7.77937 6.52 7.19843 5.87265 7.19843 5.2253 7.19843 4.72192 7.77937 4.72192 8.48779zM8.97552 8.48779C8.97552 9.19627 9.49496 9.77216 10.1272 9.77216 10.7705 9.77216 11.2669 9.19627 11.2779 8.48779 11.2891 7.77937 10.7756 7.19843 10.1272 7.19843 9.47885 7.19843 8.97552 7.77937 8.97552 8.48779z"
    fill="currentColor"
  />
</svg>

<svg xmlns="http://www.w3.org/2000/svg" width="16" height="16" fill="none" data-fui-icon="true" viewBox="0 0 16 16"><path stroke="currentColor" stroke-width="1.2" d="M12.443 3.94a10.6 10.6 0 0 0-2.641-.816 7 7 0 0 0-.338.691 9.8 9.8 0 0 0-2.93 0 7 7 0 0 0-.34-.691c-.912.156-1.8.431-2.642.819-1.671 2.485-2.124 4.91-1.898 7.299.979.727 2.074 1.28 3.24 1.634q.392-.532.693-1.124a7 7 0 0 1-1.093-.525q.139-.1.268-.202a7.57 7.57 0 0 0 6.476 0q.131.108.268.202a7 7 0 0 1-1.095.526q.3.591.694 1.123a10.6 10.6 0 0 0 3.24-1.633c.266-2.771-.453-5.173-1.902-7.302Z"/><path fill="currentColor" d="M4.722 8.488c0 .708.521 1.284 1.153 1.284.643 0 1.14-.576 1.151-1.284s-.506-1.29-1.153-1.29c-.648 0-1.151.581-1.151 1.29m4.254 0c0 .708.519 1.284 1.151 1.284.643 0 1.14-.576 1.15-1.284.012-.709-.501-1.29-1.15-1.29s-1.151.581-1.151 1.29"/></svg>
